assets/features/channel/southeast-asia/boost.svg

<svg width="80" height="80" viewBox="0 0 80 80" fill="none" xmlns="http://www.w3.org/2000/svg">
<rect width="80" height="80" rx="8" fill="#ED3024"/>
<path d="M51.0418 42.3356C50.1923 40.6503 48.7007 39.5736 46.609 39.1351C46.4509 39.1017 46.2722 39.0814 46.1014 39.0622L45.871 39.0344C45.7326 39.0158 45.5374 38.9956 45.2099 38.9931L45.03 38.9924L41.6378 38.9612L41.67 35.589C41.6822 35.1466 41.6613 34.9059 41.6422 34.7434L41.6181 34.51C41.6027 34.3449 41.5837 34.1618 41.5522 33.9998C41.148 31.9022 40.0957 30.395 38.425 29.5189C37.1401 28.8465 35.9604 28.8136 35.9482 28.8136L35.7605 28.8102C35.4323 28.8085 35.1807 28.8224 34.892 28.859C29.3692 29.5582 29.3875 34.8561 29.3912 35.0827L29.3116 44.9125C29.2955 46.8853 29.8217 48.453 30.8765 49.5707C31.9617 50.6253 33.5185 51.1738 35.4913 51.1896L45.3754 51.2708C45.9354 51.2752 50.8859 51.162 51.6429 45.8758C51.691 45.5405 51.7086 45.2561 51.7071 44.8266C51.7059 44.8125 51.6939 43.6311 51.0418 42.3356Z" fill="white"/>
<path d="M54.0749 20.2268L26.2482 20.0002C22.95 19.9734 20.2535 22.6244 20.2269 25.9203L20.0002 53.7295C19.9726 57.0264 22.6261 59.7194 25.9241 59.746L53.7506 59.9728C57.0498 60.0001 59.7455 57.3505 59.7728 54.0532L59.9998 26.2442C60.0264 22.9488 57.3746 20.2541 54.0749 20.2268ZM54.3826 50.5822C52.6375 53.8025 49.1008 54.9182 48.0599 55.1829C47.4508 55.3375 46.9129 55.4077 45.9277 55.4589H45.9165L34.0706 55.3629C34.0638 55.3629 33.2633 55.3519 32.4557 55.1431C31.8896 54.9975 31.1694 54.7641 30.5854 54.4907C29.8889 54.1668 29.0935 53.7159 28.001 52.6238L27.8262 52.446C26.9638 51.5597 26.1411 50.3066 25.7328 49.2535C25.4976 48.6528 25.4314 48.3599 25.2923 47.7958C25.1 47.0134 25.1127 46.1818 25.1137 46.1167L25.2081 34.4443C25.2769 33.4324 25.3565 32.8942 25.521 32.2881C25.8024 31.2519 26.9767 27.7375 30.241 26.0388C32.078 25.0218 33.9644 24.5121 35.8409 24.5272C38.7401 24.5511 40.6098 25.8313 40.6886 25.8864C45.7698 28.9935 45.8779 34.0924 45.867 34.8114C46.6135 34.7994 51.6733 34.9804 54.7348 40.1651C54.7516 40.1885 57.7717 44.6929 54.3826 50.5822Z" fill="white"/>
</svg>

<svg xmlns="http://www.w3.org/2000/svg" width="80" height="80" fill="none" viewBox="0 0 80 80"><rect width="80" height="80" fill="#ed3024" rx="8"/><path fill="#fff" d="M51.042 42.336c-.85-1.686-2.341-2.762-4.433-3.2a6 6 0 0 0-.508-.074l-.23-.028a5 5 0 0 0-.661-.04l-.18-.002-3.392-.03.032-3.373a5.5 5.5 0 0 0-.028-.846l-.024-.233a5 5 0 0 0-.066-.51c-.404-2.098-1.456-3.605-3.127-4.481-1.285-.672-2.465-.705-2.477-.705l-.187-.004a6 6 0 0 0-.869.049c-5.523.7-5.505 5.997-5.5 6.224l-.08 9.83c-.017 1.972.51 3.54 1.564 4.658 1.086 1.054 2.643 1.603 4.615 1.619l9.884.08c.56.005 5.51-.108 6.268-5.394.048-.335.066-.62.064-1.05-.001-.014-.013-1.195-.665-2.49"/><path fill="#fff" d="M54.075 20.227 26.248 20a5.97 5.97 0 0 0-6.021 5.92L20 53.73a5.97 5.97 0 0 0 5.924 6.016l27.827.227a5.97 5.97 0 0 0 6.022-5.92L60 26.244a5.97 5.97 0 0 0-5.925-6.017m.308 30.355c-1.745 3.22-5.282 4.336-6.323 4.6-.61.155-1.147.226-2.132.277h-.011l-11.846-.096c-.007 0-.808-.011-1.615-.22a11.4 11.4 0 0 1-1.87-.652c-.697-.324-1.492-.775-2.585-1.867l-.175-.178c-.862-.886-1.685-2.14-2.093-3.192-.235-.601-.302-.894-.44-1.458a7.3 7.3 0 0 1-.18-1.68l.095-11.672c.069-1.012.149-1.55.313-2.156.281-1.036 1.456-4.55 4.72-6.25 1.837-1.016 3.723-1.526 5.6-1.51 2.9.023 4.769 1.303 4.848 1.358 5.08 3.108 5.189 8.206 5.178 8.925.747-.012 5.806.17 8.868 5.354.017.023 3.037 4.528-.352 10.417"/></svg>
